svg/material-icons/flip_camera_ios/materialiconsround/20px.svg

<svg xmlns="http://www.w3.org/2000/svg" width="20" height="20" viewBox="0 0 20 20"><path d="M16 5h-2l-1.71-1.71c-.18-.18-.44-.29-.7-.29H8.41c-.26 0-.52.11-.7.29L6 5H4c-.55 0-1 .45-1 1v9c0 .55.45 1 1 1h12c.55 0 1-.45 1-1V6c0-.55-.45-1-1-1zm-6 9c-2.21 0-4-1.79-4-4H4.5l2-2 2 2H7c0 1.65 1.35 3 3 3 .44 0 .85-.1 1.23-.27l.73.73c-.58.34-1.24.54-1.96.54zm3.5-2-2-2H13c0-1.65-1.35-3-3-3-.44 0-.85.1-1.23.27l-.73-.73C8.62 6.2 9.28 6 10 6c2.21 0 4 1.79 4 4h1.5l-2 2z"/></svg>

<svg xmlns="http://www.w3.org/2000/svg" enable-background="new 0 0 20 20" height="20" viewBox="0 0 20 20" width="20"><g><rect fill="none" height="20" width="20"/></g><g><path d="M16,5h-2l-1.71-1.71C12.11,3.11,11.85,3,11.59,3H8.41C8.15,3,7.89,3.11,7.71,3.29L6,5H4C3.45,5,3,5.45,3,6v9 c0,0.55,0.45,1,1,1h12c0.55,0,1-0.45,1-1V6C17,5.45,16.55,5,16,5z M10,14c-2.21,0-4-1.79-4-4H4.5l2-2l2,2H7c0,1.65,1.35,3,3,3 c0.44,0,0.85-0.1,1.23-0.27l0.73,0.73C11.38,13.8,10.72,14,10,14z M13.5,12l-2-2H13c0-1.65-1.35-3-3-3C9.56,7,9.15,7.1,8.77,7.27 L8.04,6.54C8.62,6.2,9.28,6,10,6c2.21,0,4,1.79,4,4h1.5L13.5,12z"/></g></svg>
